MODULE CalibData
	PERS tooldata tWeldGun:=[TRUE,[[49.841566361,0,372.194826196],[0.981627183,0,0.190808995,0]],[2,[0,0,100],[0,1,0,0],0,0,0]];
	TASK PERS wobjdata Workobject_1:=[FALSE,FALSE,"STN1",[[0,0,0],[1,0,0,0]],[[0,0,0],[1,0,0,0]]];
ENDMODULE

MODULE Module1
	CONST robtarget Target_10_4:=[[0,-140,40],[0.653281482,-0.653281483,-0.27059805,-0.27059805],[0,0,0,0],[9E+09,9E+09,9E+09,9E+09,9E+09,9E+09]];
	CONST robtarget Target_10:=[[0,-40,40],[0.653281482,-0.653281483,-0.27059805,-0.27059805],[0,0,0,0],[9E+09,9E+09,9E+09,9E+09,9E+09,9E+09]];
	CONST robtarget Target_20:=[[-15.307337295,-36.9551813,55.307337295],[0.552498444,-0.741273461,-0.232815701,-0.301754825],[0,0,0,0],[9E+09,9E+09,9E+09,9E+09,9E+09,9E+09]];
	CONST robtarget Target_30:=[[-28.284271247,-28.284271247,68.284271247],[0.424708201,-0.820473238,-0.175919897,-0.339851143],[0,0,0,0],[9E+09,9E+09,9E+09,9E+09,9E+09,9E+09]];
	CONST robtarget Target_40:=[[-36.9551813,-15.307337295,76.9551813],[0.245447259,-0.877471606,-0.091255347,-0.401835396],[0,0,0,0],[9E+09,9E+09,9E+09,9E+09,9E+09,9E+09]];
	CONST robtarget Target_50:=[[-39.231411216,-7.803612881,79.231411216],[0.126767777,-0.911559828,-0.051100945,-0.387785125],[0,0,0,0],[9E+09,9E+09,9E+09,9E+09,9E+09,9E+09]];
	CONST robtarget Target_60:=[[-40,0,80],[0,0.923879533,0,0.382683432],[0,0,0,0],[9E+09,9E+09,9E+09,9E+09,9E+09,9E+09]];
	CONST robtarget Target_70:=[[-39.231411216,7.803612881,79.231411216],[0.126767777,0.911559828,-0.051100945,0.387785125],[0,0,0,0],[9E+09,9E+09,9E+09,9E+09,9E+09,9E+09]];
	CONST robtarget Target_80:=[[-36.9551813,15.307337295,76.9551813],[0.245447259,0.877471606,-0.091255347,0.401835396],[0,0,0,0],[9E+09,9E+09,9E+09,9E+09,9E+09,9E+09]];
	CONST robtarget Target_90:=[[-28.284271247,28.284271247,68.284271247],[0.424708201,0.820473238,-0.175919897,0.339851143],[0,0,0,0],[9E+09,9E+09,9E+09,9E+09,9E+09,9E+09]];
	CONST robtarget Target_100:=[[-15.307337295,36.9551813,55.307337295],[0.552498444,0.741273461,-0.232815702,0.301754825],[0,0,0,0],[9E+09,9E+09,9E+09,9E+09,9E+09,9E+09]];
	CONST robtarget Target_110:=[[0,40,40],[0.653281482,0.653281483,-0.27059805,0.27059805],[0,0,0,0],[9E+09,9E+09,9E+09,9E+09,9E+09,9E+09]];
	CONST robtarget Target_110_3:=[[0,140,40],[0.653281482,0.653281483,-0.27059805,0.27059805],[0,0,0,0],[9E+09,9E+09,9E+09,9E+09,9E+09,9E+09]];
	CONST robtarget pTarget_1:=[[0,-140,40],[0.653281482,-0.653281483,-0.27059805,-0.27059805],[-1,0,-1,0],[9E+09,-89.999998314,-0.000000734,9E+09,9E+09,9E+09]];
	CONST robtarget pTarget_2:=[[0,-40,40],[0.653281482,-0.653281483,-0.27059805,-0.27059805],[-1,0,-1,0],[9E+09,-89.802410692,4.557172082,9E+09,9E+09,9E+09]];
	CONST robtarget pTarget_3:=[[-15.307337295,-36.9551813,55.307337295],[0.552498444,-0.741273461,-0.232815701,-0.301754825],[-1,0,-1,0],[9E+09,-76.295977766,18.279214138,9E+09,9E+09,9E+09]];
	CONST robtarget pTarget_4:=[[-28.284271247,-28.284271247,68.284271247],[0.424708201,-0.820473238,-0.175919897,-0.339851143],[-1,0,-1,0],[9E+09,-61.411118651,37.565448127,9E+09,9E+09,9E+09]];
	CONST robtarget pTarget_5:=[[-36.9551813,-15.307337295,76.9551813],[0.245447259,-0.877471606,-0.091255347,-0.401835396],[-1,0,-2,0],[9E+09,-47.380570194,71.170137619,9E+09,9E+09,9E+09]];
	CONST robtarget pTarget_6:=[[-39.231411216,-7.803612881,79.231411216],[0.126767777,-0.911559828,-0.051100945,-0.387785125],[-1,0,-2,0],[9E+09,-36.088107809,97.239437874,9E+09,9E+09,9E+09]];
	CONST robtarget pTarget_7:=[[-40,0,80],[0,0.923879533,0,0.382683432],[-1,0,-2,0],[9E+09,-31.001963049,129.358833622,9E+09,9E+09,9E+09]];
	CONST robtarget pTarget_8:=[[-39.231411216,7.803612881,79.231411216],[0.126767777,0.911559828,-0.051100945,0.387785125],[-1,0,-2,0],[9E+09,-36.088107791,152.02186895,9E+09,9E+09,9E+09]];
	CONST robtarget pTarget_9:=[[-36.9551813,15.307337295,76.9551813],[0.245447259,0.877471606,-0.091255347,0.401835396],[-1,0,-2,0],[9E+09,-47.380570194,163.079129504,9E+09,9E+09,9E+09]];
	CONST robtarget pTarget_10:=[[-28.284271247,28.284271247,68.284271247],[0.424708201,0.820473238,-0.175919897,0.339851143],[-1,0,-2,0],[9E+09,-61.411118652,186.252573581,9E+09,9E+09,9E+09]];
	CONST robtarget pTarget_11:=[[-15.307337295,36.9551813,55.307337295],[0.552498444,0.741273461,-0.232815702,0.301754825],[-1,0,-2,0],[9E+09,-76.29597773,198.192760331,9E+09,9E+09,9E+09]];
	CONST robtarget pTarget_12:=[[0,40,40],[0.653281482,0.653281483,-0.27059805,0.27059805],[-1,0,-2,0],[9E+09,-89.802410695,207.373271387,9E+09,9E+09,9E+09]];
	CONST robtarget pTarget_13:=[[0,140,40],[0.653281482,0.653281483,-0.27059805,0.27059805],[-1,0,-2,0],[9E+09,-89.999998314,199.574847217,9E+09,9E+09,9E+09]];
	CONST robtarget Target_120_2:=[[0,140,40],[0.27059805,0.27059805,-0.653281483,0.653281482],[0,0,0,0],[9E+09,9E+09,9E+09,9E+09,9E+09,9E+09]];
	CONST robtarget Target_120:=[[0,40,40],[0.27059805,0.27059805,-0.653281483,0.653281482],[0,0,0,0],[9E+09,9E+09,9E+09,9E+09,9E+09,9E+09]];
	CONST robtarget Target_130:=[[15.307337295,36.9551813,55.307337295],[0.301754825,0.232815701,-0.741273461,0.552498444],[0,0,0,0],[9E+09,9E+09,9E+09,9E+09,9E+09,9E+09]];
	CONST robtarget Target_140:=[[28.284271247,28.284271247,68.284271247],[0.339851143,0.175919897,-0.820473239,0.4247082],[0,0,0,0],[9E+09,9E+09,9E+09,9E+09,9E+09,9E+09]];
	CONST robtarget Target_150:=[[36.9551813,15.307337295,76.9551813],[0.401835396,0.091255347,-0.877471606,0.245447259],[0,0,0,0],[9E+09,9E+09,9E+09,9E+09,9E+09,9E+09]];
	CONST robtarget Target_160:=[[39.231411216,7.803612881,79.231411216],[0.387785125,0.051100945,-0.911559828,0.126767777],[0,0,0,0],[9E+09,9E+09,9E+09,9E+09,9E+09,9E+09]];
	CONST robtarget Target_170:=[[40,0,80],[0.382683432,0,-0.923879533,0],[0,0,0,0],[9E+09,9E+09,9E+09,9E+09,9E+09,9E+09]];
	CONST robtarget Target_180:=[[39.231411216,-7.803612881,79.231411216],[0.387785125,-0.051100945,-0.911559828,-0.126767777],[0,0,0,0],[9E+09,9E+09,9E+09,9E+09,9E+09,9E+09]];
	CONST robtarget Target_190:=[[36.9551813,-15.307337295,76.9551813],[0.401835396,-0.091255347,-0.877471606,-0.245447259],[0,0,0,0],[9E+09,9E+09,9E+09,9E+09,9E+09,9E+09]];
	CONST robtarget Target_200:=[[28.284271247,-28.284271247,68.284271247],[0.339851143,-0.175919897,-0.820473239,-0.4247082],[0,0,0,0],[9E+09,9E+09,9E+09,9E+09,9E+09,9E+09]];
	CONST robtarget Target_210:=[[15.307337295,-36.9551813,55.307337295],[0.301754825,-0.232815702,-0.741273461,-0.552498444],[0,0,0,0],[9E+09,9E+09,9E+09,9E+09,9E+09,9E+09]];
	CONST robtarget Target_220:=[[0,-40,40],[0.27059805,-0.27059805,-0.653281483,-0.653281482],[0,0,0,0],[9E+09,9E+09,9E+09,9E+09,9E+09,9E+09]];
	CONST robtarget Target_220_2:=[[0,-140,40],[0.27059805,-0.27059805,-0.653281483,-0.653281482],[0,0,0,0],[9E+09,9E+09,9E+09,9E+09,9E+09,9E+09]];
	CONST robtarget pTarget_14:=[[0,140,40],[0.27059805,0.27059805,-0.653281483,0.653281482],[-1,0,-1,0],[9E+09,-89.999998314,179.999999266,9E+09,9E+09,9E+09]];
	CONST robtarget pTarget_15:=[[0,40,40],[0.27059805,0.27059805,-0.653281483,0.653281482],[-1,0,-1,0],[9E+09,-89.802410692,184.557172082,9E+09,9E+09,9E+09]];
	CONST robtarget pTarget_16:=[[15.307337295,36.9551813,55.307337295],[0.301754825,0.232815701,-0.741273461,0.552498444],[-1,0,-1,0],[9E+09,-76.295977766,198.279214138,9E+09,9E+09,9E+09]];
	CONST robtarget pTarget_17:=[[28.284271247,28.284271247,68.284271247],[0.339851143,0.175919897,-0.820473239,0.4247082],[-1,0,-1,0],[9E+09,-61.411118499,217.565448249,9E+09,9E+09,9E+09]];
	CONST robtarget pTarget_18:=[[36.9551813,15.307337295,76.9551813],[0.401835396,0.091255347,-0.877471606,0.245447259],[-1,0,-2,0],[9E+09,-47.380570194,251.170137619,9E+09,9E+09,9E+09]];
	CONST robtarget pTarget_19:=[[39.231411216,7.803612881,79.231411216],[0.387785125,0.051100945,-0.911559828,0.126767777],[-1,0,-2,0],[9E+09,-36.088107809,277.239437874,9E+09,9E+09,9E+09]];
	CONST robtarget pTarget_20:=[[40,0,80],[0.382683432,0,-0.923879533,0],[-1,0,-2,0],[9E+09,-31.001963049,309.358833622,9E+09,9E+09,9E+09]];
	CONST robtarget pTarget_21:=[[39.231411216,-7.803612881,79.231411216],[0.387785125,-0.051100945,-0.911559828,-0.126767777],[-1,0,-2,0],[9E+09,-36.088107791,332.02186895,9E+09,9E+09,9E+09]];
	CONST robtarget pTarget_22:=[[36.9551813,-15.307337295,76.9551813],[0.401835396,-0.091255347,-0.877471606,-0.245447259],[-1,0,-2,0],[9E+09,-47.380570194,343.079129504,9E+09,9E+09,9E+09]];
	CONST robtarget pTarget_23:=[[28.284271247,-28.284271247,68.284271247],[0.339851143,-0.175919897,-0.820473239,-0.4247082],[-1,0,-2,0],[9E+09,-61.4111185,366.252573561,9E+09,9E+09,9E+09]];
	CONST robtarget pTarget_24:=[[15.307337295,-36.9551813,55.307337295],[0.301754825,-0.232815702,-0.741273461,-0.552498444],[-1,0,-2,0],[9E+09,-76.29597773,378.192760331,9E+09,9E+09,9E+09]];
	CONST robtarget pTarget_25:=[[0,-40,40],[0.27059805,-0.27059805,-0.653281483,-0.653281482],[-1,0,-2,0],[9E+09,-89.802410695,387.373271387,9E+09,9E+09,9E+09]];
	CONST robtarget pTarget_26:=[[0,-140,40],[0.27059805,-0.27059805,-0.653281483,-0.653281482],[-1,0,-2,0],[9E+09,-89.999998314,379.574847217,9E+09,9E+09,9E+09]];
	CONST robtarget pZero:=[[-328.614472219,0,913.738524269],[0,0.945518575,0,-0.325568155],[0,0,0,0],[9E+09,0,0,9E+09,9E+09,9E+09]];
	CONST robtarget p90_:=[[-328.614472219,-793.738524269,120.000029927],[0.668582584,-0.668582609,-0.230211446,0.230211454],[0,0,0,0],[9E+09,-89.99999784,0,9E+09,9E+09,9E+09]];
	CONST robtarget p90_180:=[[328.614472219,793.738524269,120.000029927],[0.230211454,-0.230211446,0.668582609,-0.668582584],[0,0,0,0],[9E+09,-89.99999784,180,9E+09,9E+09,9E+09]];
    !***********************************************************
    !
    ! Module:  Module1
    !
    ! Description:
    !   <Insert description here>
    !
    ! Author: firmi
    !
    ! Version: 1.0
    !
    !***********************************************************
    
    
    !***********************************************************
    !
    ! Procedure main
    !
    !   This is the entry point of your program
    !
    !***********************************************************
    PROC main()
        !Add your code here
        DeactUnit STN1;
        ActUnit STN1;
        Zeroing;
        Path_30;
        mmPath_1;
        Path_40;
        mmPath_2;
        Zeroing;
        DeactUnit STN1;
        
        
    ENDPROC
	PROC Path_10()
	    MoveL Target_10_4,v50,z0,tWeldGun\WObj:=Workobject_1;
	    MoveL Target_10,v50,z0,tWeldGun\WObj:=Workobject_1;
	    MoveL Target_20,v50,z0,tWeldGun\WObj:=Workobject_1;
	    MoveL Target_30,v50,z0,tWeldGun\WObj:=Workobject_1;
	    MoveL Target_40,v50,z0,tWeldGun\WObj:=Workobject_1;
	    MoveL Target_50,v50,z0,tWeldGun\WObj:=Workobject_1;
	    MoveL Target_60,v50,z0,tWeldGun\WObj:=Workobject_1;
	    MoveL Target_70,v50,z0,tWeldGun\WObj:=Workobject_1;
	    MoveL Target_80,v50,z0,tWeldGun\WObj:=Workobject_1;
	    MoveL Target_90,v50,z0,tWeldGun\WObj:=Workobject_1;
	    MoveL Target_100,v50,z0,tWeldGun\WObj:=Workobject_1;
	    MoveL Target_110,v50,z0,tWeldGun\WObj:=Workobject_1;
	    MoveL Target_110_3,v50,z0,tWeldGun\WObj:=Workobject_1;
	ENDPROC
	PROC mmPath_1()
	    MoveL pTarget_1,v50,z0,tWeldGun\WObj:=Workobject_1;
	    MoveL pTarget_2,v50,z0,tWeldGun\WObj:=Workobject_1;
	    MoveL pTarget_3,v50,z0,tWeldGun\WObj:=Workobject_1;
	    MoveL pTarget_4,v50,z0,tWeldGun\WObj:=Workobject_1;
	    MoveL pTarget_5,v50,z0,tWeldGun\WObj:=Workobject_1;
	    MoveL pTarget_6,v50,z0,tWeldGun\WObj:=Workobject_1;
	    MoveL pTarget_7,v50,z0,tWeldGun\WObj:=Workobject_1;
	    MoveL pTarget_8,v50,z0,tWeldGun\WObj:=Workobject_1;
	    MoveL pTarget_9,v50,z0,tWeldGun\WObj:=Workobject_1;
	    MoveL pTarget_10,v50,z0,tWeldGun\WObj:=Workobject_1;
	    MoveL pTarget_11,v50,z0,tWeldGun\WObj:=Workobject_1;
	    MoveL pTarget_12,v50,z0,tWeldGun\WObj:=Workobject_1;
	    MoveL pTarget_13,v50,z0,tWeldGun\WObj:=Workobject_1;
	ENDPROC
	PROC Path_20()
	    MoveL Target_120_2,v50,z0,tWeldGun\WObj:=Workobject_1;
	    MoveL Target_120,v50,z0,tWeldGun\WObj:=Workobject_1;
	    MoveL Target_130,v50,z0,tWeldGun\WObj:=Workobject_1;
	    MoveL Target_140,v50,z0,tWeldGun\WObj:=Workobject_1;
	    MoveL Target_150,v50,z0,tWeldGun\WObj:=Workobject_1;
	    MoveL Target_160,v50,z0,tWeldGun\WObj:=Workobject_1;
	    MoveL Target_170,v50,z0,tWeldGun\WObj:=Workobject_1;
	    MoveL Target_180,v50,z0,tWeldGun\WObj:=Workobject_1;
	    MoveL Target_190,v50,z0,tWeldGun\WObj:=Workobject_1;
	    MoveL Target_200,v50,z0,tWeldGun\WObj:=Workobject_1;
	    MoveL Target_210,v50,z0,tWeldGun\WObj:=Workobject_1;
	    MoveL Target_220,v50,z0,tWeldGun\WObj:=Workobject_1;
	    MoveL Target_220_2,v50,z0,tWeldGun\WObj:=Workobject_1;
	ENDPROC
	PROC mmPath_2()
	    MoveL pTarget_14,v50,z0,tWeldGun\WObj:=Workobject_1;
	    MoveL pTarget_15,v50,z0,tWeldGun\WObj:=Workobject_1;
	    MoveL pTarget_16,v50,z0,tWeldGun\WObj:=Workobject_1;
	    MoveL pTarget_17,v50,z0,tWeldGun\WObj:=Workobject_1;
	    MoveL pTarget_18,v50,z0,tWeldGun\WObj:=Workobject_1;
	    MoveL pTarget_19,v50,z0,tWeldGun\WObj:=Workobject_1;
	    MoveL pTarget_20,v50,z0,tWeldGun\WObj:=Workobject_1;
	    MoveL pTarget_21,v50,z0,tWeldGun\WObj:=Workobject_1;
	    MoveL pTarget_22,v50,z0,tWeldGun\WObj:=Workobject_1;
	    MoveL pTarget_23,v50,z0,tWeldGun\WObj:=Workobject_1;
	    MoveL pTarget_24,v50,z0,tWeldGun\WObj:=Workobject_1;
	    MoveL pTarget_25,v50,z0,tWeldGun\WObj:=Workobject_1;
	    MoveL pTarget_26,v50,z0,tWeldGun\WObj:=Workobject_1;
	ENDPROC
	PROC Zeroing()
	    MoveJ pZero,v50,z0,tWeldGun\WObj:=Workobject_1;
	ENDPROC
	PROC Path_30()
	    MoveL p90_,v50,z0,tWeldGun\WObj:=Workobject_1;
	ENDPROC
	PROC Path_40()
	    MoveL p90_180,v50,z0,tWeldGun\WObj:=Workobject_1;
	ENDPROC
ENDMODULE