MODULE CalibData
	PERS tooldata tWeldGun:=[TRUE,[[49.841566361,0,372.194826196],[0.981627183,0,0.190808995,0]],[2,[0,0,100],[0,1,0,0],0,0,0]];
	TASK PERS wobjdata Workobject_1:=[FALSE,TRUE,"",[[1275,0,-15],[1,0,0,0]],[[0,0,0],[1,0,0,0]]];
ENDMODULE

MODULE Module1
	CONST robtarget Target_20:=[[-234.692662705,36.9551813,55.307337295],[0.301754825,0.232815701,-0.741273461,0.552498444],[0,0,0,0],[9E+09,9E+09,9E+09,9E+09,9E+09,9E+09]];
	CONST robtarget Target_30:=[[-221.715728753,28.284271247,68.284271247],[0.339851143,0.175919897,-0.820473238,0.424708201],[0,0,0,0],[9E+09,9E+09,9E+09,9E+09,9E+09,9E+09]];
	CONST robtarget Target_40:=[[-213.0448187,15.307337295,76.9551813],[0.401835396,0.091255347,-0.877471606,0.245447259],[0,0,0,0],[9E+09,9E+09,9E+09,9E+09,9E+09,9E+09]];
	CONST robtarget Target_50:=[[-210.768588784,7.803612881,79.231411216],[0.387785125,0.051100945,-0.911559828,0.126767777],[0,0,0,0],[9E+09,9E+09,9E+09,9E+09,9E+09,9E+09]];
	CONST robtarget Target_60:=[[-210,0,80],[0.382683432,0,-0.923879533,0],[0,0,0,0],[9E+09,9E+09,9E+09,9E+09,9E+09,9E+09]];
	CONST robtarget Target_70:=[[-210.768588784,-7.803612881,79.231411216],[0.387785125,-0.051100945,-0.911559828,-0.126767777],[0,0,0,0],[9E+09,9E+09,9E+09,9E+09,9E+09,9E+09]];
	CONST robtarget Target_80:=[[-213.0448187,-15.307337295,76.9551813],[0.401835396,-0.091255347,-0.877471606,-0.245447259],[0,0,0,0],[9E+09,9E+09,9E+09,9E+09,9E+09,9E+09]];
	CONST robtarget Target_90:=[[-221.715728753,-28.284271247,68.284271247],[0.339851143,-0.175919897,-0.820473238,-0.424708201],[0,0,0,0],[9E+09,9E+09,9E+09,9E+09,9E+09,9E+09]];
	CONST robtarget Target_100:=[[-234.692662705,-36.9551813,55.307337295],[0.301754825,-0.232815702,-0.741273461,-0.552498444],[0,0,0,0],[9E+09,9E+09,9E+09,9E+09,9E+09,9E+09]];
	CONST robtarget Target_110:=[[-250,-40,40],[0.27059805,-0.27059805,-0.653281483,-0.653281482],[0,0,0,0],[9E+09,9E+09,9E+09,9E+09,9E+09,9E+09]];
	CONST robtarget Target_120:=[[-250,-40,40],[0.653281482,-0.653281483,-0.27059805,-0.27059805],[0,0,0,0],[9E+09,9E+09,9E+09,9E+09,9E+09,9E+09]];
	CONST robtarget Target_130:=[[-265.307337295,-36.9551813,55.307337295],[0.552498444,-0.741273461,-0.232815702,-0.301754825],[0,0,0,0],[9E+09,9E+09,9E+09,9E+09,9E+09,9E+09]];
	CONST robtarget Target_140:=[[-278.284271247,-28.284271247,68.284271247],[0.424708201,-0.820473238,-0.175919897,-0.339851143],[0,0,0,0],[9E+09,9E+09,9E+09,9E+09,9E+09,9E+09]];
	CONST robtarget Target_150:=[[-286.9551813,-15.307337295,76.9551813],[0.245447259,-0.877471606,-0.091255347,-0.401835396],[0,0,0,0],[9E+09,9E+09,9E+09,9E+09,9E+09,9E+09]];
	CONST robtarget Target_160:=[[-289.231411216,-7.803612881,79.231411216],[0.126767777,-0.911559828,-0.051100945,-0.387785125],[0,0,0,0],[9E+09,9E+09,9E+09,9E+09,9E+09,9E+09]];
	CONST robtarget Target_170:=[[-290,0,80],[0,0.923879533,0,0.382683432],[0,0,0,0],[9E+09,9E+09,9E+09,9E+09,9E+09,9E+09]];
	CONST robtarget Target_180:=[[-289.231411216,7.803612881,79.231411216],[0.126767777,0.911559828,-0.051100945,0.387785125],[0,0,0,0],[9E+09,9E+09,9E+09,9E+09,9E+09,9E+09]];
	CONST robtarget Target_190:=[[-286.9551813,15.307337295,76.9551813],[0.245447259,0.877471606,-0.091255347,0.401835396],[0,0,0,0],[9E+09,9E+09,9E+09,9E+09,9E+09,9E+09]];
	CONST robtarget Target_200:=[[-278.284271247,28.284271247,68.284271247],[0.424708201,0.820473238,-0.175919897,0.339851143],[0,0,0,0],[9E+09,9E+09,9E+09,9E+09,9E+09,9E+09]];
	CONST robtarget Target_210:=[[-265.307337295,36.9551813,55.307337295],[0.552498444,0.741273461,-0.232815702,0.301754825],[0,0,0,0],[9E+09,9E+09,9E+09,9E+09,9E+09,9E+09]];
	CONST robtarget Target_220:=[[-250,40,40],[0.653281482,0.653281483,-0.27059805,0.27059805],[0,0,0,0],[9E+09,9E+09,9E+09,9E+09,9E+09,9E+09]];
	CONST robtarget Target_230:=[[-282.453870239,-23.382606923,72.453870239],[0.36908745,-0.817925816,-0.11640561,-0.425701242],[0,0,0,0],[9E+09,9E+09,9E+09,9E+09,9E+09,9E+09]];
	CONST robtarget Target_240:=[[-286.842532921,-15.576513344,76.842532921],[0.249627409,-0.875865985,-0.092436435,-0.40249278],[0,0,0,0],[9E+09,9E+09,9E+09,9E+09,9E+09,9E+09]];
	CONST robtarget Target_250:=[[-289.492720807,-6.350197107,79.492720807],[0.103339371,-0.915697289,-0.042043632,-0.38607225],[0,0,0,0],[9E+09,9E+09,9E+09,9E+09,9E+09,9E+09]];
	CONST robtarget Target_260:=[[-289.838896322,3.586410435,79.838896322],[0.05850504,0.9212589,-0.024095941,0.383768922],[0,0,0,0],[9E+09,9E+09,9E+09,9E+09,9E+09,9E+09]];
	CONST robtarget Target_270:=[[-287.790501577,13.110224658,77.790501577],[0.211127225,0.889602963,-0.080867869,0.396852934],[0,0,0,0],[9E+09,9E+09,9E+09,9E+09,9E+09,9E+09]];
	CONST robtarget Target_280:=[[-283.824537222,21.351830875,73.824537222],[0.338236757,0.835161577,-0.112262157,0.418925106],[0,0,0,0],[9E+09,9E+09,9E+09,9E+09,9E+09,9E+09]];
	CONST robtarget Target_290:=[[-278.562833915,28.002937681,68.562833915],[0.439678809,0.772214203,-0.11915461,0.442910768],[0,0,0,0],[9E+09,9E+09,9E+09,9E+09,9E+09,9E+09]];
	CONST robtarget Target_300:=[[-272.483009037,33.083444571,62.483009037],[0.521308907,0.707587067,-0.108046549,0.464632661],[0,0,0,0],[9E+09,9E+09,9E+09,9E+09,9E+09,9E+09]];
	CONST robtarget Target_310:=[[-265.898978741,36.704529353,55.898978741],[0.58859417,0.643472913,-0.084415573,0.482051372],[0,0,0,0],[9E+09,9E+09,9E+09,9E+09,9E+09,9E+09]];
	CONST robtarget Target_320:=[[-259.017319759,38.970346988,49.017319759],[0.645433608,0.580218539,-0.051773745,0.494045933],[0,0,0,0],[9E+09,9E+09,9E+09,9E+09,9E+09,9E+09]];
	CONST robtarget Target_330:=[[-251.98508554,39.950712577,41.98508554],[0.694474459,0.51755125,-0.012188894,0.499697268],[0,0,0,0],[9E+09,9E+09,9E+09,9E+09,9E+09,9E+09]];
	CONST robtarget Target_10:=[[-250,40,40],[0.27059805,0.27059805,-0.653281483,0.653281482],[0,0,0,0],[9E+09,9E+09,9E+09,9E+09,9E+09,9E+09]];
	CONST robtarget pHome:=[[1056.205080757,0,1143],[0.5,0,0.866025404,0],[0,0,0,0],[9E+09,9E+09,9E+09,9E+09,9E+09,9E+09]];
	CONST robtarget Target_10_2:=[[-250,140,40],[0.27059805,0.27059805,-0.653281483,0.653281482],[0,0,0,0],[9E+09,9E+09,9E+09,9E+09,9E+09,9E+09]];
	CONST robtarget Target_110_2:=[[-250,-140,40],[0.27059805,-0.27059805,-0.653281483,-0.653281482],[0,0,0,0],[9E+09,9E+09,9E+09,9E+09,9E+09,9E+09]];
	CONST robtarget Target_120_2:=[[-250,-140,40],[0.653281482,-0.653281483,-0.27059805,-0.27059805],[0,0,0,0],[9E+09,9E+09,9E+09,9E+09,9E+09,9E+09]];
	CONST robtarget Target_220_2:=[[-250,140,40],[0.653281482,0.653281483,-0.27059805,0.27059805],[0,0,0,0],[9E+09,9E+09,9E+09,9E+09,9E+09,9E+09]];
    

    PROC main()
        !Add your code here
        Home;
        Path_FarSeam;
        !Home;
        Path_NearSeam;
        Home;
    ENDPROC
	
	PROC Home()
	    MoveJ pHome,v400,z0,tWeldGun\WObj:=wobj0;
	ENDPROC
	PROC Path_FarSeam()
	    MoveL Target_10_2,v400,z0,tWeldGun\WObj:=Workobject_1;
	    MoveL Target_10,v50,z0,tWeldGun\WObj:=Workobject_1;
	    MoveL Target_20,v50,z0,tWeldGun\WObj:=Workobject_1;
	    MoveL Target_30,v50,z0,tWeldGun\WObj:=Workobject_1;
	    MoveL Target_40,v50,z0,tWeldGun\WObj:=Workobject_1;
	    MoveL Target_50,v50,z0,tWeldGun\WObj:=Workobject_1;
	    MoveL Target_60,v50,z0,tWeldGun\WObj:=Workobject_1;
	    MoveL Target_70,v50,z0,tWeldGun\WObj:=Workobject_1;
	    MoveL Target_80,v50,z0,tWeldGun\WObj:=Workobject_1;
	    MoveL Target_90,v50,z0,tWeldGun\WObj:=Workobject_1;
	    MoveL Target_100,v50,z0,tWeldGun\WObj:=Workobject_1;
	    MoveL Target_110,v50,z0,tWeldGun\WObj:=Workobject_1;
	    MoveL Target_110_2,v50,z0,tWeldGun\WObj:=Workobject_1;
	ENDPROC
	PROC Path_NearSeam()
	    MoveL Target_120_2,v50,z0,tWeldGun\WObj:=Workobject_1;
	    MoveL Target_120,v50,z0,tWeldGun\WObj:=Workobject_1;
	    MoveL Target_130,v50,z0,tWeldGun\WObj:=Workobject_1;
	    MoveL Target_140,v50,z0,tWeldGun\WObj:=Workobject_1;
	    MoveL Target_150,v50,z0,tWeldGun\WObj:=Workobject_1;
	    MoveL Target_160,v50,z0,tWeldGun\WObj:=Workobject_1;
	    MoveL Target_170,v50,z0,tWeldGun\WObj:=Workobject_1;
	    MoveL Target_180,v50,z0,tWeldGun\WObj:=Workobject_1;
	    MoveL Target_190,v50,z0,tWeldGun\WObj:=Workobject_1;
	    MoveL Target_200,v50,z0,tWeldGun\WObj:=Workobject_1;
	    MoveL Target_210,v50,z0,tWeldGun\WObj:=Workobject_1;
	    MoveL Target_220,v50,z0,tWeldGun\WObj:=Workobject_1;
	    MoveL Target_220_2,v50,z0,tWeldGun\WObj:=Workobject_1;
	ENDPROC
ENDMODULE